.local/share/icons/Gruvbox-Plus-Dark/actions/16/paint-gradient-mesh.svg

<svg width="16" height="16" version="1.1" xmlns="http://www.w3.org/2000/svg">
  <defs>
    <style id="current-color-scheme" type="text/css">.ColorScheme-Text { color:#ebdbb2; } .ColorScheme-Highlight { color:#458588; }</style>
  </defs>
  <path class="ColorScheme-Text" d="m0 0h16v16h-16z" fill="currentColor" opacity=".3"/>
  <path class="ColorScheme-Text" d="m0 8h8v8h-8zm8-8h8v8h-8z" fill="currentColor"/>
</svg>

<svg xmlns="http://www.w3.org/2000/svg" width="16" height="16" version="1.1">
 <defs>
  <style id="current-color-scheme" type="text/css">
   .ColorScheme-Text { color:#565656; } .ColorScheme-Highlight { color:#4285f4; }
  </style>
 </defs>
 <path style="opacity:0.3;fill:currentColor" class="ColorScheme-Text" d="M 0,0 H 16 V 16 H 0 Z"/>
 <path style="fill:currentColor" class="ColorScheme-Text" d="M 0,8 H 8 V 16 H 0 Z M 8,0 H 16 V 8 H 8 Z"/>
</svg>
